slides/assets/games_mechanics/chapter_mechanics.svg

<?xml version="1.0" encoding="UTF-8"?>
<svg width="653.63" height="305.06" version="1.1" viewBox="0 0 172.94 80.715" xmlns="http://www.w3.org/2000/svg" xmlns:cc="http://creativecommons.org/ns#" xmlns:dc="http://purl.org/dc/elements/1.1/" xmlns:rdf="http://www.w3.org/1999/02/22-rdf-syntax-ns#">
 <metadata>
  <rdf:RDF>
   <cc:Work rdf:about="">
    <dc:format>image/svg+xml</dc:format>
    <dc:type rdf:resource="http://purl.org/dc/dcmitype/StillImage"/>
    <dc:title/>
   </cc:Work>
  </rdf:RDF>
 </metadata>
 <g transform="matrix(7.2627 0 0 7.2627 -682.16 -695.34)" stroke-width=".13769">
  <rect x="94.208" y="96.454" width="23.308" height="9.7115" fill="#1d232d" style="paint-order:normal"/>
  <g fill="#7b8694">
   <path d="m94.596 96.26h1.1654v0.19408h-1.1654z"/>
   <path d="m96.538 96.26h1.1654v0.19408h-1.1654z"/>
   <path d="m98.481 96.26h1.1654v0.19408h-1.1654z"/>
   <path d="m100.42 96.26h1.1654v0.19408h-1.1654z"/>
   <path d="m102.37 96.26h1.1654v0.19408h-1.1654z"/>
   <path d="m104.31 96.26h1.1654v0.19408h-1.1654z"/>
   <path d="m106.25 96.26h1.1654v0.19408h-1.1654z"/>
   <path d="m108.19 96.26h1.1654v0.19408h-1.1654z"/>
   <path d="m110.13 96.26h1.1654v0.19408h-1.1654z"/>
   <path d="m112.08 96.26h1.1654v0.19408h-1.1654z"/>
   <path d="m114.02 96.26h1.1654v0.19408h-1.1654z"/>
   <path d="m115.96 96.26h1.1654v0.19408h-1.1654z"/>
   <path d="m115.96 106.17h1.1654v0.19405h-1.1654z"/>
   <path d="m114.02 106.17h1.1654v0.19405h-1.1654z"/>
   <path d="m112.08 106.17h1.1654v0.19405h-1.1654z"/>
   <path d="m110.13 106.17h1.1654v0.19405h-1.1654z"/>
   <path d="m108.19 106.17h1.1654v0.19405h-1.1654z"/>
   <path d="m106.25 106.17h1.1654v0.19405h-1.1654z"/>
   <path d="m104.31 106.17h1.1654v0.19405h-1.1654z"/>
   <path d="m102.37 106.17h1.1654v0.19405h-1.1654z"/>
   <path d="m100.42 106.17h1.1654v0.19405h-1.1654z"/>
   <path d="m98.481 106.17h1.1654v0.19405h-1.1654z"/>
   <path d="m96.538 106.17h1.1654v0.19405h-1.1654z"/>
   <path d="m94.596 106.17h1.1654v0.19405h-1.1654z"/>
   <g stroke-miterlimit="40" stroke-width=".027538">
    <path d="m100.52 99.572h2.6426l1.6504 1.616-1.6086 1.6086h-2.7187l1.6123-1.6123z"/>
    <path d="m103.8 99.572h2.6426l1.6504 1.616-1.6086 1.6086h-2.7187l1.6123-1.6123z"/>
    <path d="m107.08 99.572h2.6426l1.6504 1.616-1.6086 1.6086h-2.7187l1.6123-1.6123z"/>
    <rect x="109.41" y="101.52" width="3.2648" height="3.758"/>
   </g>
  </g>
  <rect x="109.41" y="101.52" width="3.2648" height=".88913" fill="#535e70" stroke-miterlimit="40" stroke-width=".027538"/>
  <g fill="#d2d6dc" stroke-miterlimit="40" stroke-width=".027538">
   <rect transform="scale(1,-1)" x="109.41" y="-103.37" width="1.4587" height=".41678"/>
   <rect transform="scale(1,-1)" x="109.41" y="-104.1" width="1.4587" height=".41678"/>
   <rect transform="scale(1,-1)" x="109.41" y="-104.83" width="1.4587" height=".41678"/>
   <rect transform="scale(1,-1)" x="111.05" y="-104.83" width=".37813" height=".41678"/>
   <rect transform="scale(1,-1)" x="111.05" y="-104.1" width=".37813" height=".41678"/>
   <rect transform="scale(1,-1)" x="111.05" y="-103.37" width=".37813" height=".41678"/>
  </g>
 </g>
</svg>

<?xml version="1.0" encoding="UTF-8" standalone="no"?>
<svg
   xmlns:dc="http://purl.org/dc/elements/1.1/"
   xmlns:cc="http://creativecommons.org/ns#"
   xmlns:rdf="http://www.w3.org/1999/02/22-rdf-syntax-ns#"
   xmlns:svg="http://www.w3.org/2000/svg"
   xmlns="http://www.w3.org/2000/svg"
   xmlns:sodipodi="http://sodipodi.sourceforge.net/DTD/sodipodi-0.dtd"
   xmlns:inkscape="http://www.inkscape.org/namespaces/inkscape"
   inkscape:version="1.0rc1 (09960d6f05, 2020-04-09)"
   sodipodi:docname="chapter_mechanics.svg"
   id="svg84"
   viewBox="0 0 169.27686 73.382683"
   version="1.1"
   height="277.34772"
   width="639.7851">
  <defs
     id="defs88" />
  <sodipodi:namedview
     inkscape:current-layer="svg84"
     inkscape:window-maximized="1"
     inkscape:window-y="-8"
     inkscape:window-x="-8"
     inkscape:cy="-26.309613"
     inkscape:cx="336.36258"
     inkscape:zoom="0.72212107"
     showgrid="false"
     id="namedview86"
     inkscape:window-height="1377"
     inkscape:window-width="2560"
     inkscape:pageshadow="2"
     inkscape:pageopacity="0"
     guidetolerance="10"
     gridtolerance="10"
     objecttolerance="10"
     borderopacity="1"
     bordercolor="#666666"
     pagecolor="#ffffff" />
  <metadata
     id="metadata2">
    <rdf:RDF>
      <cc:Work
         rdf:about="">
        <dc:format>image/svg+xml</dc:format>
        <dc:type
           rdf:resource="http://purl.org/dc/dcmitype/StillImage" />
        <dc:title />
      </cc:Work>
    </rdf:RDF>
  </metadata>
  <g
     id="g82"
     stroke-width="0.13769"
     transform="matrix(7.2627,0,0,7.2627,-684.20554,-699.1075)">
    <rect
       id="rect4"
       style="paint-order:normal"
       fill="#1d232d"
       height="9.7115002"
       width="23.308001"
       y="96.454002"
       x="94.208" />
    <g
       id="g64"
       fill="#7b8694">
      <path
         inkscape:connector-curvature="0"
         id="path6"
         d="m 94.596,96.26 h 1.1654 v 0.19408 H 94.596 Z" />
      <path
         inkscape:connector-curvature="0"
         id="path8"
         d="m 96.538,96.26 h 1.1654 v 0.19408 H 96.538 Z" />
      <path
         inkscape:connector-curvature="0"
         id="path10"
         d="m 98.481,96.26 h 1.1654 v 0.19408 H 98.481 Z" />
      <path
         inkscape:connector-curvature="0"
         id="path12"
         d="m 100.42,96.26 h 1.1654 v 0.19408 H 100.42 Z" />
      <path
         inkscape:connector-curvature="0"
         id="path14"
         d="m 102.37,96.26 h 1.1654 v 0.19408 H 102.37 Z" />
      <path
         inkscape:connector-curvature="0"
         id="path16"
         d="m 104.31,96.26 h 1.1654 v 0.19408 H 104.31 Z" />
      <path
         inkscape:connector-curvature="0"
         id="path18"
         d="m 106.25,96.26 h 1.1654 v 0.19408 H 106.25 Z" />
      <path
         inkscape:connector-curvature="0"
         id="path20"
         d="m 108.19,96.26 h 1.1654 v 0.19408 H 108.19 Z" />
      <path
         inkscape:connector-curvature="0"
         id="path22"
         d="m 110.13,96.26 h 1.1654 v 0.19408 H 110.13 Z" />
      <path
         inkscape:connector-curvature="0"
         id="path24"
         d="m 112.08,96.26 h 1.1654 v 0.19408 H 112.08 Z" />
      <path
         inkscape:connector-curvature="0"
         id="path26"
         d="m 114.02,96.26 h 1.1654 v 0.19408 H 114.02 Z" />
      <path
         inkscape:connector-curvature="0"
         id="path28"
         d="m 115.96,96.26 h 1.1654 v 0.19408 H 115.96 Z" />
      <path
         inkscape:connector-curvature="0"
         id="path30"
         d="m 115.96,106.17 h 1.1654 v 0.19405 H 115.96 Z" />
      <path
         inkscape:connector-curvature="0"
         id="path32"
         d="m 114.02,106.17 h 1.1654 v 0.19405 H 114.02 Z" />
      <path
         inkscape:connector-curvature="0"
         id="path34"
         d="m 112.08,106.17 h 1.1654 v 0.19405 H 112.08 Z" />
      <path
         inkscape:connector-curvature="0"
         id="path36"
         d="m 110.13,106.17 h 1.1654 v 0.19405 H 110.13 Z" />
      <path
         inkscape:connector-curvature="0"
         id="path38"
         d="m 108.19,106.17 h 1.1654 v 0.19405 H 108.19 Z" />
      <path
         inkscape:connector-curvature="0"
         id="path40"
         d="m 106.25,106.17 h 1.1654 v 0.19405 H 106.25 Z" />
      <path
         inkscape:connector-curvature="0"
         id="path42"
         d="m 104.31,106.17 h 1.1654 v 0.19405 H 104.31 Z" />
      <path
         inkscape:connector-curvature="0"
         id="path44"
         d="m 102.37,106.17 h 1.1654 v 0.19405 H 102.37 Z" />
      <path
         inkscape:connector-curvature="0"
         id="path46"
         d="m 100.42,106.17 h 1.1654 v 0.19405 H 100.42 Z" />
      <path
         inkscape:connector-curvature="0"
         id="path48"
         d="m 98.481,106.17 h 1.1654 v 0.19405 H 98.481 Z" />
      <path
         inkscape:connector-curvature="0"
         id="path50"
         d="m 96.538,106.17 h 1.1654 v 0.19405 H 96.538 Z" />
      <path
         inkscape:connector-curvature="0"
         id="path52"
         d="m 94.596,106.17 h 1.1654 v 0.19405 H 94.596 Z" />
      <g
         id="g62"
         stroke-width="0.027538"
         stroke-miterlimit="40">
        <path
           inkscape:connector-curvature="0"
           id="path54"
           d="m 100.52,99.572 h 2.6426 l 1.6504,1.616 -1.6086,1.6086 h -2.7187 l 1.6123,-1.6123 z" />
        <path
           inkscape:connector-curvature="0"
           id="path56"
           d="m 103.8,99.572 h 2.6426 l 1.6504,1.616 -1.6086,1.6086 h -2.7187 l 1.6123,-1.6123 z" />
        <path
           inkscape:connector-curvature="0"
           id="path58"
           d="m 107.08,99.572 h 2.6426 l 1.6504,1.616 -1.6086,1.6086 h -2.7187 l 1.6123,-1.6123 z" />
        <rect
           id="rect60"
           height="3.7579999"
           width="3.2648001"
           y="101.52"
           x="109.41" />
      </g>
    </g>
    <rect
       id="rect66"
       stroke-width="0.027538"
       stroke-miterlimit="40"
       fill="#535e70"
       height="0.88913"
       width="3.2648001"
       y="101.52"
       x="109.41" />
    <g
       id="g80"
       stroke-width="0.027538"
       stroke-miterlimit="40"
       fill="#d2d6dc">
      <rect
         id="rect68"
         height="0.41677999"
         width="1.4586999"
         y="-103.37"
         x="109.41"
         transform="scale(1,-1)" />
      <rect
         id="rect70"
         height="0.41677999"
         width="1.4586999"
         y="-104.1"
         x="109.41"
         transform="scale(1,-1)" />
      <rect
         id="rect72"
         height="0.41677999"
         width="1.4586999"
         y="-104.83"
         x="109.41"
         transform="scale(1,-1)" />
      <rect
         id="rect74"
         height="0.41677999"
         width="0.37812999"
         y="-104.83"
         x="111.05"
         transform="scale(1,-1)" />
      <rect
         id="rect76"
         height="0.41677999"
         width="0.37812999"
         y="-104.1"
         x="111.05"
         transform="scale(1,-1)" />
      <rect
         id="rect78"
         height="0.41677999"
         width="0.37812999"
         y="-103.37"
         x="111.05"
         transform="scale(1,-1)" />
    </g>
  </g>
</svg>
